Papirus/22x22/panel/copy-sync2.svg

<?xml version="1.0" encoding="UTF-8" standalone="no"?>
<svg xmlns:dc="http://purl.org/dc/elements/1.1/" xmlns:cc="http://creativecommons.org/ns#" xmlns:rdf="http://www.w3.org/1999/02/22-rdf-syntax-ns#" xmlns:svg="http://www.w3.org/2000/svg" xmlns="http://www.w3.org/2000/svg" id="svg2" x="0px" y="0px" version="1.1" width="22" viewBox="0 0 22 22" height="22" xml:space="preserve" enable-background="new 0 0 24 24">
    <metadata id="metadata14">
        <rdf:RDF>
            <cc:Work rdf:about="">
                <dc:format>
                    image/svg+xml
                </dc:format>
                <dc:type rdf:resource="http://purl.org/dc/dcmitype/StillImage"/>
                <dc:title/>
            </cc:Work>
        </rdf:RDF>
    </metadata>
    <path id="path6" d="M 19.634766 2.0253906 L 14.017578 8.84375 L 16 10 L 20 2.3515625 L 19.634766 2.0253906 z M 5 6.5 L 1 10 L 5.375 9.375 L 7 19 L 10.392578 16.699219 L 11.277344 16.957031 C 11.124339 16.432012 11.075608 15.892489 11.099609 15.355469 L 10.460938 15.185547 A 1.0001357 1.0001357 0 0 1 9.9804688 14.892578 L 9.7480469 15.091797 L 6.5 7 L 5 6.5 z M 12 9.0292969 L 9 10 L 10 13 L 14 10 L 12 9.0292969 z M 15 10.599609 L 14.300781 11.197266 C 14.665794 11.095262 15.03619 11.022626 15.408203 11.015625 C 15.475203 11.013625 15.541419 11.024391 15.607422 11.025391 L 15 10.599609 z M 15.429688 12.015625 C 15.018625 12.024379 14.605222 12.104073 14.208984 12.261719 L 14.96875 13.578125 C 15.828851 13.335845 16.762683 13.68643 17.232422 14.5 C 17.51112 14.982712 17.560312 15.523805 17.425781 16.015625 L 16.183594 15.681641 L 17.683594 18.28125 L 20.28125 16.78125 L 18.855469 16.398438 C 19.092204 15.533318 19.013159 14.584673 18.53125 13.75 C 17.873816 12.611346 16.662874 11.989363 15.429688 12.015625 z M 13.316406 12.71875 L 10.71875 14.21875 L 12.144531 14.599609 C 11.907805 15.464729 11.986841 16.415326 12.46875 17.25 C 13.345328 18.768204 15.206065 19.366912 16.791016 18.736328 L 16.03125 17.421875 C 15.170564 17.664439 14.237652 17.31301 13.767578 16.5 C 13.489047 16.016544 13.439553 15.476195 13.574219 14.984375 L 14.816406 15.318359 L 14.101562 14.080078 L 13.341797 12.763672 L 13.316406 12.71875 z M 19.544922 18.361328 L 18.386719 19.029297 L 20 19.5 L 19.544922 18.361328 z " style="fill:#ffffff;fill-opacity:1;opacity:1"/>
</svg>

<?xml version="1.0" encoding="UTF-8" standalone="no"?>
<svg id="svg2" xmlns:rdf="http://www.w3.org/1999/02/22-rdf-syntax-ns#" xmlns="http://www.w3.org/2000/svg" enable-background="new 0 0 24 24" xml:space="preserve" viewBox="0 0 22 22" width="22" version="1.1" y="0px" x="0px" xmlns:cc="http://creativecommons.org/ns#" height="22" xmlns:dc="http://purl.org/dc/elements/1.1/">
    <metadata id="metadata14">
        <rdf:RDF>
            <cc:Work rdf:about="">
                <dc:format>
                    image/svg+xml
                </dc:format>
                <dc:type rdf:resource="http://purl.org/dc/dcmitype/StillImage"/>
                <dc:title/>
            </cc:Work>
        </rdf:RDF>
    </metadata>
    <path id="path6" d="m19.635 2.0254l-5.617 6.8184 1.982 1.1562 4-7.6484-0.365-0.3262zm-14.635 4.4746l-4 3.5 4.375-0.625 1.625 9.625 3.393-2.301 0.884 0.258c-0.153-0.525-0.201-1.065-0.177-1.602l-0.639-0.169a1.0001 1.0001 0 0 1 -0.4805 -0.293l-0.2325 0.199-3.248-8.092-1.5-0.5zm7 2.5293l-3 0.9707 1 3 4-3-2-0.9707zm3 1.5707l-0.699 0.597c0.365-0.102 0.735-0.174 1.107-0.181 0.067-0.002 0.133 0.008 0.199 0.009l-0.607-0.425zm0.43 1.416c-0.411 0.008-0.825 0.088-1.221 0.246l0.76 1.316c0.86-0.242 1.794 0.108 2.263 0.922 0.279 0.483 0.328 1.024 0.194 1.516l-1.242-0.334 1.5 2.599 2.597-1.5-1.426-0.383c0.237-0.865 0.158-1.813-0.324-2.648-0.657-1.139-1.868-1.761-3.101-1.734zm-2.114 0.703l-2.597 1.5 1.426 0.381c-0.237 0.865-0.158 1.815 0.324 2.65 0.876 1.518 2.737 2.117 4.322 1.486l-0.76-1.314c-0.86 0.242-1.793-0.109-2.263-0.922-0.279-0.483-0.328-1.024-0.194-1.516l1.242 0.334-0.714-1.238-0.76-1.316-0.026-0.045zm6.229 5.642l-1.158 0.668 1.613 0.471-0.455-1.139z" fill="#fff"/>
</svg>
